svg/nature/cactus_2_fill.svg

<?xml version="1.0" encoding="UTF-8"?>
<svg width="24px" height="24px" viewBox="0 0 24 24" version="1.1" xmlns="http://www.w3.org/2000/svg" xmlns:xlink="http://www.w3.org/1999/xlink">
    <title>cactus_2_fill</title>
    <g id="Icon" stroke="none" stroke-width="1" fill="none" fill-rule="evenodd">
        <g id="Nature" transform="translate(-192.000000, -50.000000)">
            <g id="cactus_2_fill" transform="translate(192.000000, 50.000000)">
                <path d="M24,0 L24,24 L0,24 L0,0 L24,0 Z M12.5935,23.2578 L12.5819,23.2595 L12.5109,23.295 L12.4919,23.2987 L12.4767,23.295 L12.4057,23.2595 C12.3958,23.2564 12.387,23.259 12.3821,23.2649 L12.378,23.2758 L12.3609,23.7031 L12.3659,23.7235 L12.3769,23.7357 L12.4805,23.8097 L12.4953,23.8136 L12.5071,23.8097 L12.6107,23.7357 L12.6233,23.7197 L12.6267,23.7031 L12.6096,23.2758 C12.6076,23.2657 12.601,23.2593 12.5935,23.2578 Z M12.8584,23.1453 L12.8445,23.1473 L12.6598,23.2397 L12.6499,23.2499 L12.6472,23.2611 L12.6651,23.6906 L12.6699,23.7034 L12.6784,23.7105 L12.8793,23.8032 C12.8914,23.8069 12.9022,23.803 12.9078,23.7952 L12.9118,23.7812 L12.8777,23.1665 C12.8753,23.1546 12.8674,23.147 12.8584,23.1453 Z M12.143,23.1473 C12.1332,23.1424 12.1222,23.1453 12.1156,23.1526 L12.1099,23.1665 L12.0758,23.7812 C12.0751,23.7927 12.0828,23.8019 12.0926,23.8046 L12.1083,23.8032 L12.3092,23.7105 L12.3186,23.7024 L12.3225,23.6906 L12.3404,23.2611 L12.3372,23.2485 L12.3278,23.2397 L12.143,23.1473 Z" id="MingCute" fill-rule="nonzero"></path>
                <path d="M12,3 C12.5523,3 13,3.44772 13,4 L13,4.05493 C14.7358,4.24682 16.3229,4.93237 17.6177,5.96809 L17.6568,5.92893 C18.0474,5.5384 18.6805,5.5384 19.0711,5.92893 C19.4616,6.31945 19.4616,6.95262 19.0711,7.34314 L19.0319,7.38231 C20.0676,8.67707 20.7532,10.2641 20.9451,12 L21,12 C21.5523,12 22,12.4477 22,13 C22,13.5523 21.5523,14 21,14 L20.9451,14 C20.7531,15.7362 20.0672,17.3232 19.0317,18.6177 L19.0711,18.657 C19.4616,19.0475 19.4616,19.6807 19.0711,20.0712 C18.6805,20.4617 18.0474,20.4617 17.6568,20.0712 L17.6175,20.0319 C17.2243,20.3464 16.8042,20.6286 16.3612,20.8744 C16.2128,20.9568 16.0458,21 15.876,21 L8.12399,21 C7.95422,21 7.78724,20.9568 7.63879,20.8744 C7.1958,20.6286 6.77566,20.3464 6.38243,20.0318 L6.34314,20.0711 C5.95261,20.4616 5.31945,20.4616 4.92893,20.0711 C4.5384,19.6806 4.5384,19.0474 4.92893,18.6569 L4.96823,18.6176 C3.93281,17.3232 3.24691,15.7362 3.05494,14 L3,14 C2.44772,14 2,13.5523 2,13 C2,12.4477 2.44772,12 3,12 L3.05493,12 C3.24682,10.2642 3.93236,8.67712 4.96807,7.38236 L4.92893,7.34321 C4.5384,6.95269 4.5384,6.31953 4.92893,5.929 C5.31945,5.53848 5.95261,5.53848 6.34314,5.929 L6.38227,5.96813 C7.67705,4.93239 9.26413,4.24682 11,4.05493 L11,4 C11,3.44772 11.4477,3 12,3 Z M8.34286,16 C8.61442,17.167 9.01672,18.1732 9.43603,19 L11.7322,19 C10.9491,17.7574 10,15.6946 10,13 C10,10.7045 10.6881,8.86845 11.3779,7.60382 C11.5931,7.20933 11.8076,6.87195 12,6.59553 C12.1924,6.87195 12.4069,7.20933 12.6221,7.60382 C13.3119,8.86845 14,10.7045 14,13 C14,15.6946 13.0509,17.7574 12.2678,19 L14.564,19 C14.9833,18.1732 15.3856,17.167 15.6571,16 L16.5,16 C17.0523,16 17.5,15.5523 17.5,15 C17.5,14.4477 17.0523,14 16.5,14 L15.9627,14 C15.987,13.6755 16,13.3421 16,13 C16,12.7131 15.9909,12.4324 15.9736,12.1579 C16.0087,12.1426 16.0434,12.1252 16.0774,12.1056 L16.9434,11.6056 C17.4217,11.3295 17.5856,10.7179 17.3094,10.2396 C17.0333,9.7613 16.4217,9.59742 15.9434,9.87356 L15.665,10.0343 C15.3535,8.67928 14.8654,7.53986 14.3779,6.64611 C14.3239,6.54713 14.2699,6.4511 14.2161,6.35804 C13.5196,6.12579 12.7745,6 12,6 C11.2255,6 10.4804,6.12579 9.78392,6.35804 C9.73011,6.4511 9.67609,6.54713 9.6221,6.64611 C9.13461,7.53986 8.6465,8.67929 8.335,10.0343 L8.05658,9.87356 C7.57829,9.59742 6.9667,9.7613 6.69055,10.2396 C6.41441,10.7179 6.57829,11.3295 7.05658,11.6056 L7.92261,12.1056 C7.9566,12.1252 7.99126,12.1426 8.02643,12.1579 C8.00913,12.4324 8,12.7131 8,13 C8,13.3421 8.01298,13.6755 8.0373,14 L7.5,14 C6.94772,14 6.5,14.4477 6.5,15 C6.5,15.5523 6.94772,16 7.5,16 L8.34286,16 Z" id="形状" fill="#09244B"></path>
            </g>
        </g>
    </g>
</svg>

<svg xmlns="http://www.w3.org/2000/svg" width="24" height="24"><g fill="none" fill-rule="evenodd"><path d="M24 0v24H0V0h24ZM12.594 23.258l-.012.002-.071.035-.02.004-.014-.004-.071-.036c-.01-.003-.019 0-.024.006l-.004.01-.017.428.005.02.01.013.104.074.015.004.012-.004.104-.074.012-.016.004-.017-.017-.427c-.002-.01-.009-.017-.016-.018Zm.264-.113-.014.002-.184.093-.01.01-.003.011.018.43.005.012.008.008.201.092c.012.004.023 0 .029-.008l.004-.014-.034-.614c-.003-.012-.01-.02-.02-.022Zm-.715.002a.023.023 0 0 0-.027.006l-.006.014-.034.614c0 .012.007.02.017.024l.015-.002.201-.093.01-.008.003-.011.018-.43-.003-.012-.01-.01-.184-.092Z"/><path fill="#09244B" d="M12 3a1 1 0 0 1 1 1v.055a8.958 8.958 0 0 1 4.618 1.913l.039-.04a1 1 0 0 1 1.414 1.415l-.04.04A8.957 8.957 0 0 1 20.946 12H21a1 1 0 1 1 0 2h-.055a8.958 8.958 0 0 1-1.913 4.618l.04.039a1 1 0 0 1-1.415 1.414l-.04-.04a9.01 9.01 0 0 1-1.256.843 1 1 0 0 1-.485.126H8.124a1 1 0 0 1-.485-.126 9.005 9.005 0 0 1-1.257-.842l-.039.04a1 1 0 0 1-1.414-1.415l.04-.04A8.958 8.958 0 0 1 3.054 14H3a1 1 0 1 1 0-2h.055a8.957 8.957 0 0 1 1.913-4.618l-.04-.039A1 1 0 1 1 6.344 5.93l.04.04A8.957 8.957 0 0 1 11 4.054V4a1 1 0 0 1 1-1ZM8.343 16a13.307 13.307 0 0 0 1.093 3h2.296A11.254 11.254 0 0 1 12 6.596 11.235 11.235 0 0 1 14 13c0 2.695-.95 4.757-1.732 6h2.296c.42-.827.822-1.833 1.093-3h.843a1 1 0 1 0 0-2h-.537a13.387 13.387 0 0 0 .01-1.842 1.04 1.04 0 0 0 .104-.052l.866-.5a1 1 0 1 0-1-1.732l-.278.16a13.321 13.321 0 0 0-1.449-3.676A6.993 6.993 0 0 0 12 6c-.774 0-1.52.126-2.216.358a13.268 13.268 0 0 0-1.449 3.676l-.278-.16a1 1 0 0 0-1 1.732l.866.5c.034.02.068.037.103.052A13.384 13.384 0 0 0 8.037 14H7.5a1 1 0 1 0 0 2h.843Z"/></g></svg>
